build/images/icons/google-plus.svg

<svg xmlns="http://www.w3.org/2000/svg" width="16" height="15"><path d="M13.5 3.717v2.44h-1v-2.44H10v-.998h2.5V.279h1v2.44H16v.998h-2.5zM6.585 1.246c.888.491 1.408 1.288 1.408 2.331 0 .876-.541 1.566-1.239 2.102-.681.522-.81.742-.81 1.186 0 .378.729 1.024 1.111 1.289 1.114.774 1.444 1.493 1.444 2.693 0 1.497-1.444 3.169-4.116 3.169C2.039 14.016 0 12.895 0 11.398c0-1.52 1.866-2.987 4.209-2.987.256 0 .49-.01.732-.01-.321-.307-.574-.688-.574-1.151 0-.275.089-.55.213-.785-.127.009-.257-.012-.391-.012-1.924 0-3.214-1.391-3.214-3.057C.975 1.765 2.756.263 4.648.263h4.22l-.945.983H6.585zM4.656 8.799c-1.62-.017-3.071.97-3.071 2.156 0 1.209 1.17 2.094 2.789 2.094 2.277 0 3.071-.823 3.071-2.032 0-.146-.018-.289-.052-.428-.178-.685-.808-1.024-1.688-1.624a3.596 3.596 0 00-1.049-.166zm1.82-5.203C6.287 2.194 5.207 1.068 4.12 1.037 3.033 1.005 2.304 2.078 2.492 3.48 2.68 4.883 3.713 6.046 4.8 6.077c1.087.032 1.863-1.079 1.676-2.481z"/></svg>

<svg 
 xmlns="http://www.w3.org/2000/svg"
 xmlns:xlink="http://www.w3.org/1999/xlink"
 width="16px" height="15px">
<path 
 d="M13.500,3.717 L13.500,6.157 L12.500,6.157 L12.500,3.717 L10.000,3.717 L10.000,2.719 L12.500,2.719 L12.500,0.279 L13.500,0.279 L13.500,2.719 L16.000,2.719 L16.000,3.717 L13.500,3.717 ZM6.585,1.246 C7.473,1.737 7.993,2.534 7.993,3.577 C7.993,4.453 7.452,5.143 6.754,5.679 C6.073,6.201 5.944,6.421 5.944,6.865 C5.944,7.243 6.673,7.889 7.055,8.154 C8.169,8.928 8.499,9.647 8.499,10.847 C8.499,12.344 7.055,14.016 4.383,14.016 C2.039,14.016 -0.000,12.895 -0.000,11.398 C-0.000,9.878 1.866,8.411 4.209,8.411 C4.465,8.411 4.699,8.401 4.941,8.401 C4.620,8.094 4.367,7.713 4.367,7.250 C4.367,6.975 4.456,6.700 4.580,6.465 C4.453,6.474 4.323,6.453 4.189,6.453 C2.265,6.453 0.975,5.062 0.975,3.396 C0.975,1.765 2.756,0.263 4.648,0.263 C5.703,0.263 8.868,0.263 8.868,0.263 L7.923,1.246 L6.585,1.246 ZM4.656,8.799 C3.036,8.782 1.585,9.769 1.585,10.955 C1.585,12.164 2.755,13.049 4.374,13.049 C6.651,13.049 7.445,12.226 7.445,11.017 C7.445,10.871 7.427,10.728 7.393,10.589 C7.215,9.904 6.585,9.565 5.705,8.965 C5.386,8.863 5.034,8.804 4.656,8.799 ZM6.476,3.596 C6.287,2.194 5.207,1.068 4.120,1.037 C3.033,1.005 2.304,2.078 2.492,3.480 C2.680,4.883 3.713,6.046 4.800,6.077 C5.887,6.109 6.663,4.998 6.476,3.596 Z"/>
</svg>
